packages/components/icons/assets/ShopingCartOutline.svg

<svg viewBox="0 0 24 24" xmlns="http://www.w3.org/2000/svg" data-title="ShopingCartOutline" fill="currentColor" stroke="none">
  <path d="M7.16717 18.6129C6.27558 18.6129 5.46505 19.3387 5.46505 20.3065 5.46505 21.2742 6.19453 22 7.16717 22 8.13982 22 8.8693 21.2742 8.8693 20.3065 8.8693 19.3387 8.05876 18.6129 7.16717 18.6129ZM14.1378 18.6129C13.2462 18.6129 12.4357 19.3387 12.4357 20.3065 12.4357 21.2742 13.1651 22 14.1378 22 15.0294 22 15.8399 21.2742 15.8399 20.3065 15.8399 19.3387 15.0294 18.6129 14.1378 18.6129ZM6.92401 10.1452C7.00507 10.3871 7.16717 10.629 7.32928 10.7097 7.49139 10.7903 7.65349 10.871 7.8156 10.871 7.89666 10.871 7.97771 10.871 8.05876 10.871 8.54509 10.7097 8.8693 10.2258 8.78825 9.66129L8.46403 8.29032C8.30192 7.72581 7.8156 7.40323 7.24823 7.56452 6.7619 7.72581 6.43769 8.20968 6.5998 8.77419L6.92401 10.1452ZM11.7872 10.7903C11.8683 10.7903 11.9493 10.7903 12.0304 10.7903 12.1925 10.7903 12.3546 10.7097 12.5167 10.629 12.7599 10.4677 12.922 10.3065 12.922 10.0645L13.2462 8.69355C13.3273 8.45161 13.2462 8.20968 13.1651 7.96774 13.0841 7.72581 12.8409 7.56452 12.5978 7.56452 12.1114 7.40323 11.5441 7.72581 11.382 8.29032L11.0578 9.66129C10.9767 10.1452 11.3009 10.7097 11.7872 10.7903Z"/>
  <path d="M21.0274 2H18.8389C18.4336 2 18.1094 2.16129 17.7852 2.40323C17.461 2.64516 17.2989 2.96774 17.2178 3.29032L16.8126 4.74194H3.68186C3.4387 4.74194 3.19554 4.82258 2.95238 4.90323C2.79027 5.06452 2.54711 5.14516 2.38501 5.3871C2.2229 5.54839 2.14184 5.79032 2.06079 6.03226C1.97974 6.27419 1.97974 6.51613 2.06079 6.75806L3.19554 12.2419C3.2766 12.6452 3.4387 12.9677 3.76292 13.2097C4.08713 13.4516 4.41135 13.6129 4.81662 13.6129H15.0294L14.7052 15.1452H6.43769C5.87031 15.1452 5.46505 15.5484 5.46505 16.1129C5.46505 16.6774 5.87031 17.0806 6.43769 17.0806H14.8673C15.2725 17.0806 15.5968 16.9194 15.921 16.6774C16.2452 16.4355 16.4073 16.1129 16.4883 15.7097L17.0557 12.8065L18.4336 5.95161L19.001 3.93548H21.0274C21.5947 3.93548 22 3.53226 22 2.96774C22 2.40323 21.5947 2 21.0274 2ZM15.3536 11.6774H5.05978L4.00608 6.67742H16.4073L15.3536 11.6774Z"/>
</svg>

<svg viewBox="0 0 24 24" xmlns="http://www.w3.org/2000/svg" data-title="ShopingCartOutline" fill="currentColor" stroke="none">
  <path d="m7.17,18.61c-.89,0-1.7.73-1.7,1.69s.73,1.69,1.7,1.69,1.7-.73,1.7-1.69-.81-1.69-1.7-1.69Zm6.97,0c-.89,0-1.7.73-1.7,1.69s.73,1.69,1.7,1.69c.89,0,1.7-.73,1.7-1.69s-.81-1.69-1.7-1.69Zm-7.21-8.47c.08.24.24.48.41.56.16.08.32.16.49.16h.24c.49-.16.81-.65.73-1.21l-.32-1.37c-.16-.56-.65-.89-1.22-.73-.49.16-.81.65-.65,1.21l.32,1.37Zm4.86.65h.24c.16,0,.32-.08.49-.16.24-.16.41-.32.41-.56l.32-1.37c.08-.24,0-.48-.08-.73-.08-.24-.32-.4-.57-.4-.49-.16-1.05.16-1.22.73l-.32,1.37c-.08.48.24,1.05.73,1.13Z"/>
  <path d="m21.03,2h-2.19c-.41,0-.73.16-1.05.4-.32.24-.49.56-.57.89l-.41,1.45H3.68c-.24,0-.49.08-.73.16-.16.16-.41.24-.57.48-.16.16-.24.4-.32.65-.08.24-.08.48,0,.73l1.13,5.48c.08.4.24.73.57.97.32.24.65.4,1.05.4h10.21l-.32,1.53H6.44c-.57,0-.97.4-.97.97s.41.97.97.97h8.43c.41,0,.73-.16,1.05-.4.32-.24.49-.56.57-.97l.57-2.9,1.38-6.85.57-2.02h2.03c.57,0,.97-.4.97-.97s-.41-.97-.97-.97Zm-5.67,9.68H5.06l-1.05-5h12.4l-1.05,5Z"/>
</svg>
